src/img/novel.svg

<svg width="33" height="41" viewBox="0 0 33 41" xmlns="http://www.w3.org/2000/svg">
<path fill-rule="evenodd" clip-rule="evenodd" d="M5.89418 31.9285C4.51814 29.6818 2.83212 27.8112 0.836131 26.521C0.26793 26.1537 0.124452 25.3382 0.540438 24.8047C4.15593 20.1672 9.79294 8.01868 12.7415 1.40215C13.181 0.416062 14.6883 0.738582 14.6883 1.81816V19.44C13.1242 20.1331 12.0332 21.6992 12.0332 23.5201C12.0332 24.1851 12.1787 24.8161 12.4397 25.383L5.89418 31.9285ZM7.34675 34.6814C8.03773 36.2042 8.61427 37.8368 9.07635 39.5334C9.19588 39.9722 9.59101 40.2824 10.0459 40.2824H16.4937H22.9416C23.3964 40.2824 23.7916 39.9722 23.9111 39.5334C24.3732 37.8368 24.9497 36.2042 25.6407 34.6814L22.211 31.2516L19.3551 34.1075C19.4281 34.3655 19.4672 34.6378 19.4672 34.9192C19.4672 36.5615 18.1358 37.8928 16.4935 37.8928C14.8512 37.8928 13.5198 36.5615 13.5198 34.9192C13.5198 33.2768 14.8512 31.9455 16.4935 31.9455C16.7448 31.9455 16.9888 31.9766 17.2219 32.0353L20.1083 29.1489L18.4762 27.5169C17.879 27.8137 17.2058 27.9806 16.4937 27.9806C15.7816 27.9806 15.1084 27.8137 14.5112 27.5169L7.34675 34.6814ZM27.0933 31.9285C28.4693 29.6818 30.1553 27.8112 32.1513 26.521C32.7195 26.1537 32.863 25.3382 32.447 24.8047C28.8315 20.1672 23.1945 8.01868 20.2459 1.40215C19.8065 0.416062 18.2992 0.738582 18.2992 1.81816V19.44C19.8632 20.1332 20.9542 21.6992 20.9542 23.5201C20.9542 24.1851 20.8087 24.8161 20.5478 25.383L27.0933 31.9285Z" />
</svg>

<svg width="33" height="41" xmlns="http://www.w3.org/2000/svg"><path fill-rule="evenodd" clip-rule="evenodd" d="M5.9 32c-1.4-2.3-3-4.2-5-5.5-.6-.3-.8-1.2-.4-1.7C4.2 20.2 9.8 8 12.7 1.4c.5-1 2-.7 2 .4v17.6a4.5 4.5 0 0 0-2.3 6L6 31.9Zm1.4 2.7c.7 1.5 1.3 3.1 1.8 4.8.1.5.5.8 1 .8h12.8a1 1 0 0 0 1-.8c.5-1.7 1-3.3 1.7-4.8l-3.4-3.4-2.8 2.8a3 3 0 1 1-2.2-2l3-3-1.7-1.6a4.4 4.4 0 0 1-4 0l-7.2 7.2Zm19.8-2.8c1.4-2.2 3-4 5-5.4.6-.3.8-1.2.3-1.7C28.8 20.2 23.2 8 20.2 1.4c-.4-1-1.9-.7-1.9.4v17.6a4.5 4.5 0 0 1 2.2 6l6.6 6.5Z"/></svg>
